StripePaymentSheet/StripePaymentSheet/Resources/StripePaymentSheet.xcassets/Carousel/carousel_sepa.imageset/sepaDark.svg

<svg fill="none" height="40" viewBox="0 0 56 40" width="56" xmlns="http://www.w3.org/2000/svg"><g clip-rule="evenodd" fill="#fff" fill-rule="evenodd"><path d="m43.55 7.6001h-31.15c-1.7673 0-3.19999 1.43269-3.19999 3.2v18.35c0 1.7673 1.43269 3.2 3.19999 3.2h31.15c1.7673 0 3.2-1.4327 3.2-3.2v-18.35c0-1.76731-1.4327-3.2-3.2-3.2zm.45 6.3999h-32v12h32z"/><path d="m10.2 10.8001c0-1.21503.985-2.2 2.2-2.2h31.15c1.215 0 2.2.98497 2.2 2.2v18.35c0 1.215-.985 2.2-2.2 2.2h-31.15c-1.215 0-2.2-.985-2.2-2.2zm30.0588 11.8845h-2.9358l-.3953 1.4334h-2.2706l2.4491-8.2943h3.3152l2.4817 8.2943h-2.2238l-.4196-1.4334zm-.4363-1.6157-1.0279-3.5952-.9998 3.5952zm-11.1613 3.0491v-8.2943h4.0907c.5616 0 .9905.0475 1.2839.1397.6727.2146 1.124.6535 1.3558 1.3165.1196.3476.1794.872.1794 1.572 0 .8416-.0654 1.4457-.1962 1.8143-.2635.7276-.8036 1.1465-1.6193 1.2557-.0963.0161-.5046.0304-1.2241.0427l-.3644.0124h-1.31v2.141zm2.1958-4.0654h1.3689c.4345-.0162.6979-.0504.7942-.1026.1289-.0732.2158-.2185.2588-.436.028-.1454.0421-.361.0421-.6459 0-.3515-.0271-.6118-.0832-.7818-.0785-.2374-.2682-.3828-.5672-.435-.1417-.0114-.2839-.0155-.4261-.0124h-1.3875zm-11.1791-1.5825h-2.0435c0-.342-.0402-.57-.1177-.6858-.1215-.1729-.4579-.2584-1.0054-.2584-.5336 0-.8877.0494-1.0605.1482-.172.0997-.2579.3163-.2579.6506 0 .3021.0766.5006.2289.5956.1102.0665.2541.1073.4354.1197l.413.0285c.5518.0347 1.1032.0768 1.6539.1263.6989.0713 1.2035.2603 1.5184.5661.2466.2375.3952.551.4419.9357.0271.2308.0402.491.0402.7808 0 .6677-.0617 1.1569-.1869 1.4675-.228.568-.74.9271-1.5352 1.0781-.3326.0637-.8409.095-1.5277.095-1.1437 0-1.9417-.0684-2.392-.209-.5513-.169-.9157-.5148-1.0923-1.0353-.0991-.2878-.1467-.7694-.1467-1.4457h2.0444v.1728c0 .36.1019.5918.3056.6934.1401.0722.3102.1093.5101.114h.7513c.3831 0 .627-.0199.7335-.0598.1869-.076.3102-.1957.37-.3629.0299-.1044.0467-.2374.0467-.3999 0-.3647-.1308-.587-.3934-.6668-.0981-.0313-.5541-.076-1.367-.131-.6522-.0475-1.1054-.0931-1.3595-.1368-.669-.1273-1.1157-.3895-1.3371-.7865-.1962-.3372-.2944-.8473-.2944-1.5303 0-.5205.0542-.9375.1589-1.2509.1056-.3135.2756-.5519.512-.7143.343-.2508.7849-.3971 1.3213-.4408.4941-.0418.9898-.0618 1.4856-.0598.8569 0 1.468.0494 1.8333.1491.8896.2432 1.3325.9233 1.3325 2.0403 0 .0922-.0057.228-.0187.4123zm8.1883-.4323c-.5496-.6737-1.3843-1.1046-2.3213-1.1046-1.0693.0009-2.0568.5708-2.5909 1.495h4.692l-.5632 1.2048h-4.5191c-.0247.2491-.0188.5003.0174.748h4.1529l-.5641 1.2058h-3.1271c.5518.8434 1.4927 1.3523 2.5021 1.3533.8611.0004 1.6804-.3707 2.247-1.0178v1.4776c-.6811.453-1.5051.7181-2.3919.7181-1.7611 0-3.273-1.0439-3.9183-2.5321h-1.4944l.5632-1.2049h.6173c-.0247-.2486-.0266-.499-.0058-.748h-1.2279l.5642-1.2048h.9544c.628-1.5259 2.1582-2.6045 3.9473-2.6045 1.0987-.0027 2.1567.415 2.956 1.1673z"/></g></svg>

<svg width="56" height="40" viewBox="0 0 56 40" fill="none" xmlns="http://www.w3.org/2000/svg">
<path fill-rule="evenodd" clip-rule="evenodd" d="M43.55 7.6001H12.4C10.6327 7.6001 9.20001 9.03279 9.20001 10.8001V29.1501C9.20001 30.9174 10.6327 32.3501 12.4 32.3501H43.55C45.3173 32.3501 46.75 30.9174 46.75 29.1501V10.8001C46.75 9.03279 45.3173 7.6001 43.55 7.6001ZM44 14H12V26H44V14Z" fill="white"/>
<path fill-rule="evenodd" clip-rule="evenodd" d="M10.2 10.8001C10.2 9.58507 11.185 8.6001 12.4 8.6001H43.55C44.765 8.6001 45.75 9.58507 45.75 10.8001V29.1501C45.75 30.3651 44.765 31.3501 43.55 31.3501H12.4C11.185 31.3501 10.2 30.3651 10.2 29.1501V10.8001ZM40.2588 22.6846H37.323L36.9277 24.118H34.6571L37.1062 15.8237H40.4214L42.9031 24.118H40.6793L40.2597 22.6846H40.2588ZM39.8225 21.0689L38.7946 17.4737L37.7948 21.0689H39.8225ZM28.6612 24.118V15.8237H32.7519C33.3135 15.8237 33.7424 15.8712 34.0358 15.9634C34.7085 16.178 35.1598 16.6169 35.3916 17.2799C35.5112 17.6275 35.571 18.1519 35.571 18.8519C35.571 19.6935 35.5056 20.2976 35.3748 20.6662C35.1113 21.3938 34.5712 21.8127 33.7555 21.9219C33.6592 21.938 33.2509 21.9523 32.5314 21.9646L32.167 21.977H30.857V24.118H28.6612ZM30.857 20.0526H32.2259C32.6604 20.0364 32.9238 20.0022 33.0201 19.95C33.149 19.8768 33.2359 19.7315 33.2789 19.514C33.3069 19.3686 33.321 19.153 33.321 18.8681C33.321 18.5166 33.2939 18.2563 33.2378 18.0863C33.1593 17.8489 32.9696 17.7035 32.6706 17.6513C32.5289 17.6399 32.3867 17.6358 32.2445 17.6389H30.857V20.0526ZM19.6779 18.4701H17.6344C17.6344 18.1281 17.5942 17.9001 17.5167 17.7843C17.3952 17.6114 17.0588 17.5259 16.5113 17.5259C15.9777 17.5259 15.6236 17.5753 15.4508 17.6741C15.2788 17.7738 15.1929 17.9904 15.1929 18.3247C15.1929 18.6268 15.2695 18.8253 15.4218 18.9203C15.532 18.9868 15.6759 19.0276 15.8572 19.04L16.2702 19.0685C16.822 19.1032 17.3734 19.1453 17.9241 19.1948C18.623 19.2661 19.1276 19.4551 19.4425 19.7609C19.6891 19.9984 19.8377 20.3119 19.8844 20.6966C19.9115 20.9274 19.9246 21.1876 19.9246 21.4774C19.9246 22.1451 19.8629 22.6343 19.7377 22.9449C19.5097 23.5129 18.9977 23.872 18.2025 24.023C17.8699 24.0867 17.3616 24.118 16.6748 24.118C15.5311 24.118 14.7331 24.0496 14.2828 23.909C13.7315 23.74 13.3671 23.3942 13.1905 22.8737C13.0914 22.5859 13.0438 22.1043 13.0438 21.428H15.0882V21.6008C15.0882 21.9608 15.1901 22.1926 15.3938 22.2942C15.5339 22.3664 15.704 22.4035 15.9039 22.4082H16.6552C17.0383 22.4082 17.2822 22.3883 17.3887 22.3484C17.5756 22.2724 17.6989 22.1527 17.7587 21.9855C17.7886 21.8811 17.8054 21.7481 17.8054 21.5856C17.8054 21.2209 17.6746 20.9986 17.412 20.9188C17.3139 20.8875 16.8579 20.8428 16.045 20.7878C15.3928 20.7403 14.9396 20.6947 14.6855 20.651C14.0165 20.5237 13.5698 20.2615 13.3484 19.8645C13.1522 19.5273 13.054 19.0172 13.054 18.3342C13.054 17.8137 13.1082 17.3967 13.2129 17.0833C13.3185 16.7698 13.4885 16.5314 13.7249 16.369C14.0679 16.1182 14.5098 15.9719 15.0462 15.9282C15.5403 15.8864 16.036 15.8664 16.5318 15.8684C17.3887 15.8684 17.9998 15.9178 18.3651 16.0175C19.2547 16.2607 19.6976 16.9408 19.6976 18.0578C19.6976 18.15 19.6919 18.2858 19.6789 18.4701H19.6779ZM27.8662 18.0378C27.3166 17.3641 26.4819 16.9332 25.5449 16.9332C24.4756 16.9341 23.4881 17.504 22.954 18.4282H27.646L27.0828 19.633H22.5637C22.539 19.8821 22.5449 20.1333 22.5811 20.381H26.734L26.1699 21.5868H23.0428C23.5946 22.4302 24.5355 22.9391 25.5449 22.9401C26.406 22.9405 27.2253 22.5694 27.7919 21.9223V23.3999C27.1108 23.8529 26.2868 24.118 25.4 24.118C23.6389 24.118 22.127 23.0741 21.4817 21.5859H19.9873L20.5505 20.381H21.1678C21.1431 20.1324 21.1412 19.882 21.162 19.633H19.9341L20.4983 18.4282H21.4527C22.0807 16.9023 23.6109 15.8237 25.4 15.8237C26.4987 15.821 27.5567 16.2387 28.356 16.991L27.8662 18.0378Z" fill="white"/>
</svg>
